X: 1
T: Reel de l'aveugle
T: Blindman's Reel, The
M: 4/4
L: 1/8
K: D
AG|:FD D/D/D EDB,D|A,DFA BAFD|C2 EG (3BcB AG|FAde fdAG|
FD D/D/D EDB,D|A,DFA BAFD|CEAB {d}BAGE|1 DdAF D2 AG:|2 DdAF D2 de||
fdAF DFAA|B/c/A GB edcB|Acde fdgf|ecdf ecde|
fdAF DFAA|B/c/A GB edcB|Afed cABc|1 d2 ~d3 cde:|2 d2 ~d3 z AG||
